icons/clipboard-percent.svg

<svg xmlns="http://www.w3.org/2000/svg" width="24" height="24" viewBox="0 0 24 24">
  <path d="M16,1 C16.5128358,1 16.9355072,1.38604019 16.9932723,1.88337887 L17,2 L17,3 L19,3 C20.1045695,3 21,3.8954305 21,5 L21,21 C21,22.1045695 20.1045695,23 19,23 L5,23 C3.8954305,23 3,22.1045695 3,21 L3,5 C3,3.8954305 3.8954305,3 5,3 L7,3 L7,2 C7,1.48716416 7.38604019,1.06449284 7.88337887,1.00672773 L8,1 L16,1 Z M15.7071068,16.2928932 C15.3165825,15.9023689 14.6834175,15.9023689 14.2928932,16.2928932 C13.9023689,16.6834175 13.9023689,17.3165825 14.2928932,17.7071068 C14.6834175,18.0976311 15.3165825,18.0976311 15.7071068,17.7071068 C16.0976311,17.3165825 16.0976311,16.6834175 15.7071068,16.2928932 Z M15.7071068,10.2928932 C15.3165825,9.90236893 14.6834175,9.90236893 14.2928932,10.2928932 L14.2928932,10.2928932 L8.29289322,16.2928932 L8.20970461,16.3871006 C7.90467972,16.7793918 7.93240926,17.3466228 8.29289322,17.7071068 C8.68341751,18.0976311 9.31658249,18.0976311 9.70710678,17.7071068 L9.70710678,17.7071068 L15.7071068,11.7071068 L15.7902954,11.6128994 C16.0953203,11.2206082 16.0675907,10.6533772 15.7071068,10.2928932 Z M9.70710678,10.2928932 C9.31658249,9.90236893 8.68341751,9.90236893 8.29289322,10.2928932 C7.90236893,10.6834175 7.90236893,11.3165825 8.29289322,11.7071068 C8.68341751,12.0976311 9.31658249,12.0976311 9.70710678,11.7071068 C10.0976311,11.3165825 10.0976311,10.6834175 9.70710678,10.2928932 Z M15,3 L9,3 L9,5 L15,5 L15,3 Z"/>
</svg>

<svg xmlns="http://www.w3.org/2000/svg" viewBox="0 0 24 24">
  <path d="M16 1a1 1 0 0 1 1 .88V3h2a2 2 0 0 1 2 2v16a2 2 0 0 1-2 2H5a2 2 0 0 1-2-2V5c0-1.1.9-2 2-2h2V2a1 1 0 0 1 .88-1H16zm-.3 15.3a1 1 0 1 0-1.4 1.4 1 1 0 0 0 1.4-1.4zm0-6a1 1 0 0 0-1.4 0l-6 6-.09.09a1 1 0 0 0 1.5 1.32l6-6 .08-.1a1 1 0 0 0-.08-1.32zm-6 0a1 1 0 1 0-1.4 1.4 1 1 0 0 0 1.4-1.4zM15 3H9v2h6V3z"/>
</svg>
